X:1
T:Zebulon, HM
T:Zebulon, HM
T:Lowell Mason, 1830
T:Public Domain Courtesy of the Cyber Hymnal™
C:Lowell Mason, 1830
Z:Public Domain
Z:Courtesy of the Cyber Hymnal™
%%score ( 1 2 ) ( 3 4 )
L:1/8
Q:1/4=113
M:4/4
K:F
V:1 treble 
V:2 treble 
V:3 bass 
V:4 bass 
V:1
 [Fc]4 | [Fc]3 [GB] [FA]2 [EG]2 | F4 [EG]4 | [FA]2 [FA]2 [GB]2 [FA]2 | [EG]4 [Ec]4 | %5
 [Fc]3 [GB] [FA]2 [EG]2 | F4 [EG]4 | [FA]2 [FA]2 [GB]2 [FA]2 | [EG]4 [EG]4 | %9
 [FA]3 [FB] [Fc]2 [FA]2 | [Fd]4 [Fd]4 | [Fc]4 [Gc]4 | [Fc]3 [EB] [FA]2 F2 | [FG]4 [Ec]4 | F4 |] %15
V:2
 x4 | x8 | F4 x4 | x8 | x8 | x8 | F4 x4 | x8 | x8 | x8 | x8 | x8 | x6 F2 | x8 | F4 |] %15
V:3
 [F,A,]4 | [F,A,]3 [B,,D] [C,C]2 [C,B,]2 | [F,A,]4 [C,C]4 | [F,C]2 [F,C]2 [E,C]2 [F,C]2 | %4
 [C,C]4 [C,G,]4 | [F,A,]3 [B,,D] [C,C]2 [C,B,]2 | [F,A,]4 [C,C]4 | [F,C]2 [F,C]2 [E,C]2 [F,C]2 | %8
 [C,C]4 [C,C]4 | F,3 [F,G,] [F,A,]2 [F,C]2 | [B,,B,]4 [D,B,]4 | [F,A,]4 [E,G,]4 | %12
 [F,A,]3 [B,,G,] [D,F,]2 [A,,C]2 | [B,,D]4 [C,G,]4 | [F,A,]4 |] %15
V:4
 x4 | x8 | x8 | x8 | x8 | x8 | x8 | x8 | x8 | F,3 x5 | x8 | x8 | x8 | x8 | x4 |] %15

